Numix-Light/scalable/devices/media-tape-symbolic.svg

<?xml version="1.0" encoding="UTF-8" standalone="no"?>
<!-- Created with Inkscape (http://www.inkscape.org/) -->

<svg
   xmlns:osb="http://www.openswatchbook.org/uri/2009/osb"
   xmlns:dc="http://purl.org/dc/elements/1.1/"
   xmlns:cc="http://creativecommons.org/ns#"
   xmlns:rdf="http://www.w3.org/1999/02/22-rdf-syntax-ns#"
   xmlns:svg="http://www.w3.org/2000/svg"
   xmlns="http://www.w3.org/2000/svg"
   xmlns:sodipodi="http://sodipodi.sourceforge.net/DTD/sodipodi-0.dtd"
   xmlns:inkscape="http://www.inkscape.org/namespaces/inkscape"
   sodipodi:docname="media-tape-symbolic.svg"
   inkscape:export-filename="/home/sam/source-symbolic.png"
   inkscape:export-xdpi="270"
   inkscape:export-ydpi="270"
   height="16.000002"
   id="svg7384"
   style="enable-background:new"
   version="1.1"
   inkscape:version="0.91 r"
   width="16">
  <sodipodi:namedview
     inkscape:bbox-nodes="true"
     inkscape:bbox-paths="false"
     bordercolor="#666666"
     borderlayer="false"
     borderopacity="1"
     inkscape:current-layer="layer10"
     inkscape:cx="8.1302203"
     inkscape:cy="8.0944602"
     gridtolerance="10"
     inkscape:guide-bbox="true"
     guidetolerance="10"
     id="namedview88"
     inkscape:object-nodes="true"
     inkscape:object-paths="true"
     objecttolerance="10"
     pagecolor="#f7f7f7"
     inkscape:pageopacity="1"
     inkscape:pageshadow="2"
     showborder="true"
     showgrid="true"
     showguides="true"
     inkscape:showpageshadow="false"
     inkscape:snap-bbox="true"
     inkscape:snap-bbox-edge-midpoints="false"
     inkscape:snap-bbox-midpoints="true"
     inkscape:snap-center="false"
     inkscape:snap-global="true"
     inkscape:snap-grids="true"
     inkscape:snap-intersection-paths="true"
     inkscape:snap-midpoints="true"
     inkscape:snap-nodes="true"
     inkscape:snap-object-midpoints="true"
     inkscape:snap-others="true"
     inkscape:snap-page="false"
     inkscape:snap-smooth-nodes="true"
     inkscape:snap-to-guides="true"
     inkscape:window-height="1056"
     inkscape:window-maximized="1"
     inkscape:window-width="1920"
     inkscape:window-x="0"
     inkscape:window-y="24"
     inkscape:zoom="45.254834">
    <inkscape:grid
       color="#000000"
       dotted="false"
       empcolor="#0800ff"
       empopacity="0.4627451"
       empspacing="4"
       enabled="true"
       id="grid4866"
       opacity="0.16470588"
       originx="-264.0002"
       originy="-376.00336"
       snapvisiblegridlinesonly="true"
       spacingx="1"
       spacingy="1"
       type="xygrid"
       visible="true" />
  </sodipodi:namedview>
  <metadata
     id="metadata90">
    <rdf:RDF>
      <cc:Work
         rdf:about="">
        <dc:format>image/svg+xml</dc:format>
        <dc:type
           rdf:resource="http://purl.org/dc/dcmitype/StillImage" />
        <dc:title>Paper Symbolic Icon Theme</dc:title>
      </cc:Work>
    </rdf:RDF>
  </metadata>
  <title
     id="title8473">Paper Symbolic Icon Theme</title>
  <defs
     id="defs7386">
    <linearGradient
       id="linearGradient5606"
       osb:paint="solid">
      <stop
         id="stop5608"
         offset="0"
         style="stop-color:#000000;stop-opacity:1;" />
    </linearGradient>
    <filter
       inkscape:collect="always"
       id="filter7554"
       style="color-interpolation-filters:sRGB">
      <feBlend
         inkscape:collect="always"
         id="feBlend7556"
         in2="BackgroundImage"
         mode="darken" />
    </filter>
  </defs>
  <g
     inkscape:groupmode="layer"
     id="layer9"
     inkscape:label="status"
     style="display:inline"
     transform="translate(-505.0004,159.00336)" />
  <g
     inkscape:groupmode="layer"
     id="layer10"
     inkscape:label="devices"
     style="display:inline;filter:url(#filter7554)"
     transform="translate(-505.0004,159.00336)">
    <path
       style="opacity:1;fill:#353535;fill-opacity:1;fill-rule:nonzero;stroke:none;stroke-width:2;stroke-linecap:square;stroke-linejoin:miter;stroke-miterlimit:4;stroke-dasharray:none;stroke-dashoffset:0;stroke-opacity:1"
       d="m 1.5,2.0000019 c -0.831,0 -1.5,0.669 -1.5,1.5 l 0,9.0000001 c 0,0.831 0.669,1.5 1.5,1.5 l 13,0 c 0.831,0 1.5,-0.669 1.5,-1.5 l 0,-9.0000001 c 0,-0.831 -0.669,-1.5 -1.5,-1.5 z M 4,6 C 5.09865,6 6,6.90136 6,8 6,8.365498 5.8923419,8.7040972 5.71875,9 l 4.5625,0 C 10.107658,8.7040972 10,8.365498 10,8 c 0,-1.09864 0.90135,-2 2,-2 1.09865,0 2,0.90136 2,2 0,1.09865 -0.90135,2 -2,2 L 4,10 C 2.90135,10 2,9.09865 2,8 2,6.90136 2.90135,6 4,6 Z M 4,7 C 3.44179,7 3,7.4418 3,8 3,8.55821 3.44179,9 4,9 4.55821,9 5,8.55821 5,8 5,7.4418 4.55821,7 4,7 Z m 8,0 c -0.55821,0 -1,0.4418 -1,1 0,0.55821 0.44179,1 1,1 0.55821,0 1,-0.44179 1,-1 0,-0.5582 -0.44179,-1 -1,-1 z"
       transform="translate(505.0004,-159.00336)"
       id="rect4148"
       inkscape:connector-curvature="0"
       sodipodi:nodetypes="sssssssssssccsssssssssssssssss" />
  </g>
  <g
     inkscape:groupmode="layer"
     id="layer1"
     inkscape:label="places"
     style="display:inline"
     transform="translate(-264.0002,-457.99664)" />
  <g
     inkscape:groupmode="layer"
     id="layer14"
     inkscape:label="mimetypes"
     style="display:inline"
     transform="translate(-505.0004,159.00336)" />
  <g
     inkscape:groupmode="layer"
     id="layer15"
     inkscape:label="emblems"
     style="display:inline"
     transform="translate(-505.0004,159.00336)" />
  <g
     inkscape:groupmode="layer"
     id="g71291"
     inkscape:label="emotes"
     style="display:inline"
     transform="translate(-505.0004,159.00336)" />
  <g
     inkscape:groupmode="layer"
     id="layer2"
     inkscape:label="categories"
     style="display:inline"
     transform="translate(-264.0002,-307.99664)" />
  <g
     inkscape:groupmode="layer"
     id="g6058"
     inkscape:label="apps"
     style="display:inline"
     transform="translate(-264.0002,-307.99664)" />
  <g
     inkscape:groupmode="layer"
     id="layer12"
     inkscape:label="actions"
     style="display:inline"
     transform="translate(-505.0004,159.00336)" />
</svg>

<!-- Created with Inkscape (http://www.inkscape.org/) -->
<svg xmlns="http://www.w3.org/2000/svg" viewBox="0 0 16 16" style="enable-background:new">
 <defs>
  <filter id="filter7554" style="color-interpolation-filters:sRGB">
   <feBlend in2="BackgroundImage" mode="darken"/>
  </filter>
 </defs>
 <g transform="translate(-505.0004,159.00336)" style="display:inline;filter:url(#filter7554)">
  <path d="m 1.5 2 c -0.831 0 -1.5 0.669 -1.5 1.5 l 0 9 c 0 0.831 0.669 1.5 1.5 1.5 l 13 0 c 0.831 0 1.5 -0.669 1.5 -1.5 l 0 -9 c 0 -0.831 -0.669 -1.5 -1.5 -1.5 z m 2.5 4 c 1.099 0 2 0.901 2 2 0 0.365 -0.108 0.704 -0.281 1 l 4.563 0 c -0.174 -0.296 -0.281 -0.635 -0.281 -1 c 0 -1.099 0.901 -2 2 -2 1.099 0 2 0.901 2 2 0 1.099 -0.901 2 -2 2 l -8 0 c -1.099 0 -2 -0.901 -2 -2 0 -1.099 0.901 -2 2 -2 m 0 1 c -0.558 0 -1 0.442 -1 1 0 0.558 0.442 1 1 1 0.558 0 1 -0.442 1 -1 0 -0.558 -0.442 -1 -1 -1 m 8 0 c -0.558 0 -1 0.442 -1 1 0 0.558 0.442 1 1 1 0.558 0 1 -0.442 1 -1 0 -0.558 -0.442 -1 -1 -1 z" transform="translate(505.0004,-159.00336)" style="fill:#353535;opacity:1;fill-opacity:1;stroke:none;fill-rule:nonzero"/>
 </g>
</svg>
